X:1
T:Title
%%score { ( 1 3 5 ) | ( 2 4 ) }
L:1/8
M:3/4
K:Eb
V:1 treble nm="Grand Piano"
V:3 treble 
V:5 treble 
V:2 treble 
V:4 treble 
V:1
 z2 z2[Q:1/4=112] BA | [EG]4 z2 | [GB]4 z2 | [Bd]4 z2 | [FA]4 z2 | z2 B,2 c2 | [Ac]4 z2 | c6 | %8
[M:2/4] B4 |[M:1/4] BB |[M:3/4] [F=A]4 z2 | [F=A]4 z2 | z2 B,2 d2 | [E=A]4 [DB]B | [Ge]4 z2 | %15
 [Fd]4 z2 | z2 F2 G2 | A2 G2 F2 | B6 | C2 E2 F2 | G6- | G6 | G2 A2 B2 | B2 A2 G2 | c6- | c4 z2 | %26
 c2 c2 c2 | d4 z2 | e2 [GB]2 [B,EG]2 |[M:7/8] A-A- A3 z2 |[M:3/4] [=A,EG]2 F2 G2 | %31
 [B,DB]2 [DG]2 [DF]2 | [G,B,E]6- |[M:2/4] [G,B,E]4 |] %34
V:2
 z2 z2 GF | E,2 G,2 G,2 | E,2 G,2 [G,B,E]2 | F,2 A,2 A,2 | F,2 A,2[K:treble] FE | %5
 B,,2 A,2 [A,B,DA]2 | B,,2 B,2 B,2 | E,2 G,2 G,2 |[M:2/4] E,2 [G,B,]2 |[M:1/4][K:treble] GG | %10
[M:3/4][K:bass] C,2 F,2 F,2 | F,,2 F,2 F,2 | B,,2 F,2 [F,B,F]2 | [_G,,_G,]2 [G,,G,]2 z D | %14
 C,2 G,2 F2 | F,,2 F,2 E2 | B,,2 A,2 B,2 | C2 B,2 A,2 | z2 B,2 B,2 | A,2 C2 =B,2 | [E,B,]6 | %21
 z2 B,2 B,2 | =E,2 [G,C=E]2 [G,CE]2 | C,2 [G,C=E]2 [G,CE]2 | z2[K:treble] F2 F2 | %25
 z2 =E2[K:treble] [EB]2 | z2 [FA]2 [FA]2 | z2 E2 [E_G]2 | z2 E2 _D,2 |[M:7/8] z2 B,3 [B,=E]2 | %30
[M:3/4] z2 [=A,E]2 [A,E]2 | z2 B,2 A,2 | E,,2 B,,2 G,,2 |[M:2/4] E,,4 |] %34
V:3
 x6 | z2 B,2 [B,FA]2 | z2 [B,E]2 [Ge]2 | z2 C2 [CAc]2 | z2 C2 AG | [DF]4 z2 | z2 D2 [DAc]2 | %7
 G2- [B,EG-]2 [B,EG-]2 |[M:2/4] G2- [EG]2 |[M:1/4] x2 |[M:3/4] z2 C2 [CEG]2 | z2 C2 [CEG]2 | %12
 [DF]4 z2 | x6 | z2 C2 d2 | z2 =A,2 c2 | [DB]6- | [DB]6 | z2 E2 E2 | x6 | z2 E2 E2 | z2 E2 E2 | %22
 x6 | x6 | z2 A2 A2 | z2 B2 c2 | x6 | z2 _G2 c2 | x6 |[M:7/8] z2 =E3 G2 |[M:3/4] x6 | x6 | %32
 E,2 z2 z2 |[M:2/4] x4 |] %34
V:4
 x6 | x6 | x6 | x6 | x4[K:treble] x2 | x6 | x6 | x6 |[M:2/4] x4 |[M:1/4][K:treble] x2 | %10
[M:3/4][K:bass] x6 | x6 | x6 | z2 z2 [=G,,=G,]2 | x6 | x6 | x6 | x6 | G,6 | x6 | x6 | x6 | x6 | %23
 x6 | F,,6[K:treble] | G,,6[K:treble] | A,,6 | =A,,6 | B,,4 z2 |[M:7/8] C,-C,- C,3 z2 | %30
[M:3/4] [F,,F,]6 | [B,,,B,,]6 | x6 |[M:2/4] x4 |] %34
V:5
 x6 | x6 | x6 | x6 | x6 | x6 | x6 | x6 |[M:2/4] x4 |[M:1/4] x2 |[M:3/4] x6 | x6 | x6 | x6 | x6 | %15
 x6 | x6 | x6 | x6 | x6 | x6 | B,,6 | x6 | x6 | x6 | x6 | x6 | x6 | x6 |[M:7/8] x7 |[M:3/4] x6 | %31
 x6 | x6 |[M:2/4] x4 |] %34

